X: 102
T:St Patrick's Day in The Morning. JaW.102
T:Barbary Bells. JaW.102
M:6/8
Q:120
C:2A  2B = 40 bars.Barbary Bells
S:James Winder Ms, Lancashire, 1835-41
R:Jig
O:England
A:Wyresdale,Lancashire
H:1/8
Z:vmp.Chris Partington, Aug 2004
K:C
G|cdc cde|gag gec|efe ecG|ABA A2G|!
cdc cde|gag gec|efe ecA|A3c3:|!
|:gab c'2a|b2g agf|gab c'2a|b2g a3|!
gab c'ba|bag abc'|cdc cde|gag gec|efe ecG|!
ABA A2G|cdc cde|gag gec|efe ecA|A3c3:|]
